dist/assets/img/header/logo(first).svg

<svg width="204" height="47" viewBox="0 0 204 47" fill="none" xmlns="http://www.w3.org/2000/svg">
<path d="M0.957031 45V37.3H7.97503V45H6.20403V38.345L6.61103 38.752H2.32103L2.72803 38.345V45H0.957031Z" fill="#101010"/>
<path d="M13.5688 45.132C12.9601 45.132 12.3955 45.033 11.8748 44.835C11.3615 44.637 10.9141 44.3583 10.5328 43.999C10.1588 43.6397 9.86546 43.218 9.65279 42.734C9.44746 42.25 9.34479 41.722 9.34479 41.15C9.34479 40.578 9.44746 40.05 9.65279 39.566C9.86546 39.082 10.1625 38.6603 10.5438 38.301C10.9251 37.9417 11.3725 37.663 11.8858 37.465C12.3991 37.267 12.9565 37.168 13.5578 37.168C14.1665 37.168 14.7238 37.267 15.2298 37.465C15.7431 37.663 16.1868 37.9417 16.5608 38.301C16.9421 38.6603 17.2391 39.082 17.4518 39.566C17.6645 40.0427 17.7708 40.5707 17.7708 41.15C17.7708 41.722 17.6645 42.2537 17.4518 42.745C17.2391 43.229 16.9421 43.6507 16.5608 44.01C16.1868 44.362 15.7431 44.637 15.2298 44.835C14.7238 45.033 14.1701 45.132 13.5688 45.132ZM13.5578 43.614C13.9025 43.614 14.2178 43.5553 14.5038 43.438C14.7971 43.3207 15.0538 43.152 15.2738 42.932C15.4938 42.712 15.6625 42.4517 15.7798 42.151C15.9045 41.8503 15.9668 41.5167 15.9668 41.15C15.9668 40.7833 15.9045 40.4497 15.7798 40.149C15.6625 39.8483 15.4938 39.588 15.2738 39.368C15.0611 39.148 14.8081 38.9793 14.5148 38.862C14.2215 38.7447 13.9025 38.686 13.5578 38.686C13.2131 38.686 12.8941 38.7447 12.6008 38.862C12.3148 38.9793 12.0618 39.148 11.8418 39.368C11.6218 39.588 11.4495 39.8483 11.3248 40.149C11.2075 40.4497 11.1488 40.7833 11.1488 41.15C11.1488 41.5093 11.2075 41.843 11.3248 42.151C11.4495 42.4517 11.6181 42.712 11.8308 42.932C12.0508 43.152 12.3075 43.3207 12.6008 43.438C12.8941 43.5553 13.2131 43.614 13.5578 43.614Z" fill="#101010"/>
<path d="M24.0327 44.208V38.752H21.3927L21.3597 39.874C21.3377 40.3507 21.3047 40.8017 21.2607 41.227C21.224 41.6523 21.1654 42.041 21.0847 42.393C21.004 42.7377 20.8977 43.031 20.7657 43.273C20.641 43.515 20.4834 43.6873 20.2927 43.79L18.3897 43.548C18.6537 43.5553 18.87 43.4637 19.0387 43.273C19.2147 43.0823 19.354 42.8147 19.4567 42.47C19.5594 42.118 19.6327 41.7073 19.6767 41.238C19.728 40.7687 19.7647 40.259 19.7867 39.709L19.8747 37.3H25.7927V44.208H24.0327ZM18.1367 46.595L18.1477 43.548H26.8707V46.595H25.2207V45H19.7867V46.595H18.1367Z" fill="#101010"/>
<path d="M32.852 39.83C33.776 39.83 34.491 40.039 34.997 40.457C35.503 40.8677 35.756 41.4873 35.756 42.316C35.756 43.196 35.4737 43.8633 34.909 44.318C34.3517 44.7727 33.578 45 32.588 45H29.123V38.752H26.956V37.3H30.883V39.83H32.852ZM32.489 43.68C32.951 43.68 33.3104 43.5663 33.567 43.339C33.831 43.1117 33.963 42.7817 33.963 42.349C33.963 41.9237 33.831 41.6193 33.567 41.436C33.3104 41.2453 32.951 41.15 32.489 41.15H30.883V43.68H32.489Z" fill="#101010"/>
<path d="M38.679 40.402H42.386V41.788H38.679V40.402ZM38.811 43.57H43.002V45H37.04V37.3H42.859V38.73H38.811V43.57Z" fill="#101010"/>
<path d="M44.4414 45V37.3H45.9154L49.1934 42.734H48.4124L51.6354 37.3H53.1094L53.1204 45H51.4484L51.4374 39.863H51.7564L49.1714 44.186H48.3794L45.7394 39.863H46.1134V45H44.4414Z" fill="#101010"/>
<path d="M60.3132 37.3H62.0952V45H60.3132V37.3ZM56.8152 45H55.0332V37.3H56.8152V45ZM60.4452 41.843H56.6832V40.336H60.4452V41.843Z" fill="#101010"/>
<path d="M64.0244 45V37.3H65.7954V42.316L69.4694 37.3H71.1414V45H69.3814V39.995L65.7074 45H64.0244Z" fill="#101010"/>
<path d="M78.0416 45L75.6436 41.293L77.0846 40.424L80.0656 45H78.0416ZM73.0366 45V37.3H74.8076V45H73.0366ZM74.2906 41.898V40.413H76.9746V41.898H74.2906ZM77.2496 41.348L75.6106 41.15L78.1076 37.3H79.9886L77.2496 41.348Z" fill="#101010"/>
<path d="M80.9004 45V37.3H82.6714V42.316L86.3454 37.3H88.0174V45H86.2574V39.995L82.5834 45H80.9004Z" fill="#101010"/>
<path d="M98.1538 44.208V38.752H95.5138L95.4808 39.874C95.4588 40.3507 95.4258 40.8017 95.3818 41.227C95.3451 41.6523 95.2865 42.041 95.2058 42.393C95.1251 42.7377 95.0188 43.031 94.8868 43.273C94.7621 43.515 94.6045 43.6873 94.4138 43.79L92.5108 43.548C92.7748 43.5553 92.9911 43.4637 93.1598 43.273C93.3358 43.0823 93.4751 42.8147 93.5778 42.47C93.6805 42.118 93.7538 41.7073 93.7978 41.238C93.8491 40.7687 93.8858 40.259 93.9078 39.709L93.9958 37.3H99.9138V44.208H98.1538ZM92.2578 46.595L92.2688 43.548H100.992V46.595H99.3418V45H93.9078V46.595H92.2578Z" fill="#101010"/>
<path d="M102.268 45.121C102.136 45.121 101.997 45.11 101.85 45.088C101.711 45.066 101.557 45.0367 101.388 45L101.498 43.493C101.601 43.5223 101.707 43.537 101.817 43.537C102.118 43.537 102.353 43.416 102.521 43.174C102.69 42.9247 102.811 42.569 102.884 42.107C102.958 41.645 103.005 41.084 103.027 40.424L103.137 37.3H109.055V45H107.295V38.345L107.702 38.752H104.303L104.666 38.323L104.6 40.358C104.578 41.1133 104.527 41.7843 104.446 42.371C104.366 42.9577 104.241 43.4563 104.072 43.867C103.904 44.2777 103.673 44.5893 103.379 44.802C103.086 45.0147 102.716 45.121 102.268 45.121Z" fill="#101010"/>
<path d="M115.368 45V42.569L115.808 42.954H113.696C113.028 42.954 112.453 42.844 111.969 42.624C111.485 42.404 111.114 42.085 110.858 41.667C110.601 41.249 110.473 40.7503 110.473 40.171C110.473 39.5697 110.608 39.0563 110.88 38.631C111.158 38.1983 111.547 37.8683 112.046 37.641C112.544 37.4137 113.131 37.3 113.806 37.3H117.128V45H115.368ZM110.495 45L112.409 42.239H114.213L112.376 45H110.495ZM115.368 41.997V38.29L115.808 38.752H113.85C113.344 38.752 112.955 38.8693 112.684 39.104C112.42 39.3387 112.288 39.687 112.288 40.149C112.288 40.5963 112.416 40.941 112.673 41.183C112.929 41.425 113.307 41.546 113.806 41.546H115.808L115.368 41.997Z" fill="#101010"/>
<path d="M122.172 45V37.3H123.943V42.316L127.617 37.3H129.289V45H127.529V39.995L123.855 45H122.172Z" fill="#101010"/>
<path d="M136.486 37.3H138.268V45H136.486V37.3ZM132.988 45H131.206V37.3H132.988V45ZM136.618 41.843H132.856V40.336H136.618V41.843Z" fill="#101010"/>
<path d="M140.197 45V37.3H143.783C144.678 37.3 145.375 37.4723 145.873 37.817C146.372 38.1617 146.621 38.653 146.621 39.291C146.621 39.9217 146.387 40.413 145.917 40.765C145.448 41.1097 144.825 41.282 144.047 41.282L144.256 40.82C145.122 40.82 145.793 40.9923 146.269 41.337C146.746 41.6817 146.984 42.1803 146.984 42.833C146.984 43.5077 146.728 44.0393 146.214 44.428C145.708 44.8093 144.968 45 143.992 45H140.197ZM141.968 43.68H143.926C144.337 43.68 144.649 43.5993 144.861 43.438C145.074 43.2767 145.18 43.0273 145.18 42.69C145.18 42.3673 145.074 42.129 144.861 41.975C144.649 41.8137 144.337 41.733 143.926 41.733H141.968V43.68ZM141.968 40.49H143.629C144.018 40.49 144.311 40.413 144.509 40.259C144.707 40.0977 144.806 39.863 144.806 39.555C144.806 39.247 144.707 39.016 144.509 38.862C144.311 38.7007 144.018 38.62 143.629 38.62H141.968V40.49Z" fill="#101010"/>
<path d="M147.525 45L150.957 37.3H152.717L156.16 45H154.29L151.474 38.202H152.178L149.351 45H147.525ZM149.241 43.35L149.714 41.997H153.674L154.158 43.35H149.241Z" fill="#101010"/>
<path d="M157.301 45.121C157.169 45.121 157.029 45.11 156.883 45.088C156.743 45.066 156.589 45.0367 156.421 45L156.531 43.493C156.633 43.5223 156.74 43.537 156.85 43.537C157.15 43.537 157.385 43.416 157.554 43.174C157.722 42.9247 157.843 42.569 157.917 42.107C157.99 41.645 158.038 41.084 158.06 40.424L158.17 37.3H164.088V45H162.328V38.345L162.735 38.752H159.336L159.699 38.323L159.633 40.358C159.611 41.1133 159.559 41.7843 159.479 42.371C159.398 42.9577 159.273 43.4563 159.105 43.867C158.936 44.2777 158.705 44.5893 158.412 44.802C158.118 45.0147 157.748 45.121 157.301 45.121Z" fill="#101010"/>
<path d="M166.011 45V37.3H167.782V42.316L171.456 37.3H173.128V45H171.368V39.995L167.694 45H166.011Z" fill="#101010"/>
<path d="M180.095 44.208V38.752H177.455L177.422 39.874C177.4 40.3507 177.367 40.8017 177.323 41.227C177.287 41.6523 177.228 42.041 177.147 42.393C177.067 42.7377 176.96 43.031 176.828 43.273C176.704 43.515 176.546 43.6873 176.355 43.79L174.452 43.548C174.716 43.5553 174.933 43.4637 175.101 43.273C175.277 43.0823 175.417 42.8147 175.519 42.47C175.622 42.118 175.695 41.7073 175.739 41.238C175.791 40.7687 175.827 40.259 175.849 39.709L175.937 37.3H181.855V44.208H180.095ZM174.199 46.595L174.21 43.548H182.933V46.595H181.283V45H175.849V46.595H174.199Z" fill="#101010"/>
<path d="M187.818 45.132C187.209 45.132 186.644 45.033 186.124 44.835C185.61 44.637 185.163 44.3583 184.782 43.999C184.408 43.6397 184.114 43.218 183.902 42.734C183.696 42.25 183.594 41.722 183.594 41.15C183.594 40.578 183.696 40.05 183.902 39.566C184.114 39.082 184.411 38.6603 184.793 38.301C185.174 37.9417 185.621 37.663 186.135 37.465C186.648 37.267 187.205 37.168 187.807 37.168C188.415 37.168 188.973 37.267 189.479 37.465C189.992 37.663 190.436 37.9417 190.81 38.301C191.191 38.6603 191.488 39.082 191.701 39.566C191.913 40.0427 192.02 40.5707 192.02 41.15C192.02 41.722 191.913 42.2537 191.701 42.745C191.488 43.229 191.191 43.6507 190.81 44.01C190.436 44.362 189.992 44.637 189.479 44.835C188.973 45.033 188.419 45.132 187.818 45.132ZM187.807 43.614C188.151 43.614 188.467 43.5553 188.753 43.438C189.046 43.3207 189.303 43.152 189.523 42.932C189.743 42.712 189.911 42.4517 190.029 42.151C190.153 41.8503 190.216 41.5167 190.216 41.15C190.216 40.7833 190.153 40.4497 190.029 40.149C189.911 39.8483 189.743 39.588 189.523 39.368C189.31 39.148 189.057 38.9793 188.764 38.862C188.47 38.7447 188.151 38.686 187.807 38.686C187.462 38.686 187.143 38.7447 186.85 38.862C186.564 38.9793 186.311 39.148 186.091 39.368C185.871 39.588 185.698 39.8483 185.574 40.149C185.456 40.4497 185.398 40.7833 185.398 41.15C185.398 41.5093 185.456 41.843 185.574 42.151C185.698 42.4517 185.867 42.712 186.08 42.932C186.3 43.152 186.556 43.3207 186.85 43.438C187.143 43.5553 187.462 43.614 187.807 43.614Z" fill="#101010"/>
<path d="M193.393 45V37.3H196.979C197.873 37.3 198.57 37.4723 199.069 37.817C199.567 38.1617 199.817 38.653 199.817 39.291C199.817 39.9217 199.582 40.413 199.113 40.765C198.643 41.1097 198.02 41.282 197.243 41.282L197.452 40.82C198.317 40.82 198.988 40.9923 199.465 41.337C199.941 41.6817 200.18 42.1803 200.18 42.833C200.18 43.5077 199.923 44.0393 199.41 44.428C198.904 44.8093 198.163 45 197.188 45H193.393ZM195.164 43.68H197.122C197.532 43.68 197.844 43.5993 198.057 43.438C198.269 43.2767 198.376 43.0273 198.376 42.69C198.376 42.3673 198.269 42.129 198.057 41.975C197.844 41.8137 197.532 41.733 197.122 41.733H195.164V43.68ZM195.164 40.49H196.825C197.213 40.49 197.507 40.413 197.705 40.259C197.903 40.0977 198.002 39.863 198.002 39.555C198.002 39.247 197.903 39.016 197.705 38.862C197.507 38.7007 197.213 38.62 196.825 38.62H195.164V40.49Z" fill="#101010"/>
<path d="M9.37403 11.28H21.23V17.74H9.37403V11.28ZM9.98203 21.236H23.282V28H1.16603V1.39999H22.788V8.16399H9.98203V21.236Z" fill="#101010"/>
<path d="M24.9864 28L36.6144 1.39999H45.4304L57.0584 28H47.7864L39.1984 5.65599H42.6944L34.1064 28H24.9864ZM31.9024 23.364L34.1824 16.904H46.4184L48.6984 23.364H31.9024Z" fill="#101010"/>
<path d="M69.5476 28.608C67.3183 28.608 65.165 28.3547 63.0876 27.848C61.0103 27.3413 59.3003 26.6827 57.9576 25.872L60.8456 19.336C62.1123 20.0707 63.5183 20.666 65.0636 21.122C66.6343 21.5527 68.1543 21.768 69.6236 21.768C70.485 21.768 71.1563 21.7173 71.6376 21.616C72.1443 21.4893 72.5116 21.3247 72.7396 21.122C72.9676 20.894 73.0816 20.628 73.0816 20.324C73.0816 19.8427 72.8156 19.4627 72.2836 19.184C71.7516 18.9053 71.0423 18.6773 70.1556 18.5C69.2943 18.2973 68.3443 18.0947 67.3056 17.892C66.267 17.664 65.2156 17.3727 64.1516 17.018C63.113 16.6633 62.1503 16.1947 61.2636 15.612C60.4023 15.0293 59.7056 14.2693 59.1736 13.332C58.6416 12.3693 58.3756 11.1787 58.3756 9.75999C58.3756 8.11333 58.8316 6.61866 59.7436 5.27599C60.681 3.90799 62.0616 2.81866 63.8856 2.00799C65.735 1.19733 68.0276 0.791992 70.7636 0.791992C72.5623 0.791992 74.3356 0.981992 76.0836 1.36199C77.8316 1.74199 79.4023 2.32466 80.7956 3.10999L78.0976 9.60799C76.7803 8.94932 75.501 8.45532 74.2596 8.12599C73.0436 7.79666 71.853 7.63199 70.6876 7.63199C69.8263 7.63199 69.1423 7.70799 68.6356 7.85999C68.129 8.01199 67.7616 8.21466 67.5336 8.46799C67.331 8.72133 67.2296 8.99999 67.2296 9.30399C67.2296 9.75999 67.4956 10.1273 68.0276 10.406C68.5596 10.6593 69.2563 10.8747 70.1176 11.052C71.0043 11.2293 71.967 11.4193 73.0056 11.622C74.0696 11.8247 75.121 12.1033 76.1596 12.458C77.1983 12.8127 78.1483 13.2813 79.0096 13.864C79.8963 14.4467 80.6056 15.2067 81.1376 16.144C81.6696 17.0813 81.9356 18.2467 81.9356 19.64C81.9356 21.2613 81.467 22.756 80.5296 24.124C79.6176 25.4667 78.2496 26.556 76.4256 27.392C74.6016 28.2027 72.309 28.608 69.5476 28.608Z" fill="#101010"/>
<path d="M92.0276 28V16.334L94.0796 21.692L81.9956 1.39999H91.4576L99.6276 15.27H94.1176L102.364 1.39999H111.028L99.0196 21.692L100.996 16.334V28H92.0276Z" fill="#101010"/>
<path d="M121.248 28L112.356 1.39999H116.27L124.44 25.948H122.464L130.938 1.39999H134.434L142.718 25.948H140.818L149.102 1.39999H152.712L143.82 28H139.83L132.078 5.23799H133.104L125.314 28H121.248Z" fill="#101010"/>
<path d="M152.289 28L164.335 1.39999H168.097L180.181 28H176.191L165.437 3.52799H166.957L156.203 28H152.289ZM157.419 21.35L158.445 18.31H173.417L174.519 21.35H157.419Z" fill="#101010"/>
<path d="M188.785 28V17.816L189.659 20.172L178.221 1.39999H182.287L191.901 17.246H189.697L199.349 1.39999H203.111L191.711 20.172L192.547 17.816V28H188.785Z" fill="#101010"/>
</svg>

<svg width="204" height="47" fill="none" xmlns="http://www.w3.org/2000/svg"><path d="M.957 45v-7.7h7.018V45H6.204v-6.655l.407.407h-4.29l.407-.407V45H.957zm12.612.132a4.727 4.727 0 01-1.694-.297 4.07 4.07 0 01-1.342-.836 3.925 3.925 0 01-.88-1.265 4.014 4.014 0 01-.308-1.584c0-.572.102-1.1.308-1.584.212-.484.51-.906.89-1.265a4.07 4.07 0 011.343-.836 4.607 4.607 0 011.672-.297c.608 0 1.166.099 1.672.297a3.94 3.94 0 011.33.836 3.844 3.844 0 011.21 2.849c0 .572-.106 1.104-.318 1.595-.213.484-.51.906-.891 1.265a4.038 4.038 0 01-1.331.825 4.52 4.52 0 01-1.661.297zm-.011-1.518c.345 0 .66-.059.946-.176a2.243 2.243 0 001.276-1.287c.125-.3.187-.634.187-1.001 0-.367-.063-.7-.187-1.001a2.243 2.243 0 00-.506-.781 2.155 2.155 0 00-.76-.506 2.554 2.554 0 00-.956-.176c-.345 0-.664.059-.957.176a2.295 2.295 0 00-.76.506c-.22.22-.391.48-.516.781-.117.3-.176.634-.176 1.001 0 .36.059.693.176 1.001.125.3.293.561.506.781.22.22.476.389.77.506.293.117.612.176.957.176zm10.475.594v-5.456h-2.64l-.033 1.122c-.022.477-.055.928-.1 1.353a8.508 8.508 0 01-.175 1.166 3.51 3.51 0 01-.32.88c-.124.242-.282.414-.472.517l-1.903-.242a.796.796 0 00.649-.275c.176-.19.315-.458.418-.803a6.71 6.71 0 00.22-1.232c.051-.47.088-.979.11-1.529l.088-2.409h5.918v6.908h-1.76zm-5.896 2.387l.01-3.047h8.724v3.047h-1.65V45h-5.434v1.595h-1.65zm14.715-6.765c.924 0 1.639.209 2.145.627.506.41.759 1.03.759 1.859 0 .88-.282 1.547-.847 2.002-.557.455-1.331.682-2.321.682h-3.465v-6.248h-2.167V37.3h3.927v2.53h1.969zm-.363 3.85c.462 0 .821-.114 1.078-.341.264-.227.396-.557.396-.99 0-.425-.132-.73-.396-.913-.257-.19-.616-.286-1.078-.286h-1.606v2.53h1.606zm6.19-3.278h3.707v1.386h-3.707v-1.386zm.132 3.168h4.191V45H37.04v-7.7h5.819v1.43h-4.048v4.84zm5.63 1.43v-7.7h1.474l3.278 5.434h-.78l3.222-5.434h1.474l.011 7.7h-1.672l-.01-5.137h.318l-2.585 4.323h-.792l-2.64-4.323h.374V45h-1.672zm15.872-7.7h1.782V45h-1.782v-7.7zM56.815 45h-1.782v-7.7h1.782V45zm3.63-3.157h-3.762v-1.507h3.762v1.507zM64.024 45v-7.7h1.771v5.016L69.47 37.3h1.672V45h-1.76v-5.005L65.707 45h-1.683zm14.018 0l-2.398-3.707 1.44-.869L80.067 45h-2.024zm-5.005 0v-7.7h1.77V45h-1.77zm1.254-3.102v-1.485h2.684v1.485H74.29zm2.959-.55l-1.64-.198 2.498-3.85h1.88l-2.738 4.048zM80.9 45v-7.7h1.771v5.016l3.674-5.016h1.672V45h-1.76v-5.005L82.583 45H80.9zm17.254-.792v-5.456h-2.64l-.033 1.122c-.022.477-.055.928-.1 1.353a8.508 8.508 0 01-.175 1.166 3.51 3.51 0 01-.32.88c-.124.242-.281.414-.472.517l-1.903-.242a.796.796 0 00.649-.275c.176-.19.315-.458.418-.803a6.71 6.71 0 00.22-1.232c.051-.47.088-.979.11-1.529l.088-2.409h5.918v6.908h-1.76zm-5.896 2.387l.01-3.047h8.724v3.047h-1.65V45h-5.434v1.595h-1.65zm10.01-1.474c-.132 0-.271-.011-.418-.033a8.332 8.332 0 01-.462-.088l.11-1.507c.103.03.209.044.319.044a.81.81 0 00.704-.363c.169-.25.29-.605.363-1.067.074-.462.121-1.023.143-1.683l.11-3.124h5.918V45h-1.76v-6.655l.407.407h-3.399l.363-.429-.066 2.035a18.895 18.895 0 01-.154 2.013c-.08.587-.205 1.085-.374 1.496-.168.41-.399.722-.693.935-.293.213-.663.319-1.111.319zm13.1-.121v-2.431l.44.385h-2.112c-.668 0-1.243-.11-1.727-.33a2.453 2.453 0 01-1.111-.957c-.257-.418-.385-.917-.385-1.496 0-.601.135-1.115.407-1.54a2.658 2.658 0 011.166-.99c.498-.227 1.085-.341 1.76-.341h3.322V45h-1.76zm-4.873 0l1.914-2.761h1.804L112.376 45h-1.881zm4.873-3.003V38.29l.44.462h-1.958c-.506 0-.895.117-1.166.352-.264.235-.396.583-.396 1.045 0 .447.128.792.385 1.034.256.242.634.363 1.133.363h2.002l-.44.451zM122.172 45v-7.7h1.771v5.016l3.674-5.016h1.672V45h-1.76v-5.005L123.855 45h-1.683zm14.314-7.7h1.782V45h-1.782v-7.7zm-3.498 7.7h-1.782v-7.7h1.782V45zm3.63-3.157h-3.762v-1.507h3.762v1.507zM140.197 45v-7.7h3.586c.895 0 1.592.172 2.09.517.499.345.748.836.748 1.474 0 .63-.234 1.122-.704 1.474-.469.345-1.092.517-1.87.517l.209-.462c.866 0 1.537.172 2.013.517.477.345.715.843.715 1.496 0 .675-.256 1.206-.77 1.595-.506.381-1.246.572-2.222.572h-3.795zm1.771-1.32h1.958c.411 0 .723-.08.935-.242.213-.161.319-.41.319-.748 0-.323-.106-.561-.319-.715-.212-.161-.524-.242-.935-.242h-1.958v1.947zm0-3.19h1.661c.389 0 .682-.077.88-.231.198-.161.297-.396.297-.704 0-.308-.099-.539-.297-.693-.198-.161-.491-.242-.88-.242h-1.661v1.87zm5.557 4.51l3.432-7.7h1.76l3.443 7.7h-1.87l-2.816-6.798h.704L149.351 45h-1.826zm1.716-1.65l.473-1.353h3.96l.484 1.353h-4.917zm8.06 1.771c-.132 0-.272-.011-.418-.033a7.996 7.996 0 01-.462-.088l.11-1.507c.102.03.209.044.319.044.3 0 .535-.121.704-.363.168-.25.289-.605.363-1.067.073-.462.121-1.023.143-1.683l.11-3.124h5.918V45h-1.76v-6.655l.407.407h-3.399l.363-.429-.066 2.035a19.161 19.161 0 01-.154 2.013c-.081.587-.206 1.085-.374 1.496-.169.41-.4.722-.693.935-.294.213-.664.319-1.111.319zm8.71-.121v-7.7h1.771v5.016l3.674-5.016h1.672V45h-1.76v-5.005L167.694 45h-1.683zm14.084-.792v-5.456h-2.64l-.033 1.122c-.022.477-.055.928-.099 1.353a8.357 8.357 0 01-.176 1.166 3.48 3.48 0 01-.319.88c-.124.242-.282.414-.473.517l-1.903-.242a.795.795 0 00.649-.275c.176-.19.316-.458.418-.803.103-.352.176-.763.22-1.232.052-.47.088-.979.11-1.529l.088-2.409h5.918v6.908h-1.76zm-5.896 2.387l.011-3.047h8.723v3.047h-1.65V45h-5.434v1.595h-1.65zm13.619-1.463a4.723 4.723 0 01-1.694-.297 4.06 4.06 0 01-1.342-.836 3.915 3.915 0 01-.88-1.265 4.002 4.002 0 01-.308-1.584c0-.572.102-1.1.308-1.584.212-.484.509-.906.891-1.265a4.06 4.06 0 011.342-.836 4.603 4.603 0 011.672-.297c.608 0 1.166.099 1.672.297a3.95 3.95 0 011.331.836c.381.36.678.781.891 1.265.212.477.319 1.005.319 1.584 0 .572-.107 1.104-.319 1.595-.213.484-.51.906-.891 1.265a4.041 4.041 0 01-1.331.825 4.521 4.521 0 01-1.661.297zm-.011-1.518c.344 0 .66-.059.946-.176a2.253 2.253 0 001.276-1.287c.124-.3.187-.634.187-1.001 0-.367-.063-.7-.187-1.001a2.253 2.253 0 00-.506-.781 2.16 2.16 0 00-.759-.506 2.559 2.559 0 00-.957-.176c-.345 0-.664.059-.957.176a2.295 2.295 0 00-.759.506c-.22.22-.393.48-.517.781-.118.3-.176.634-.176 1.001 0 .36.058.693.176 1.001.124.3.293.561.506.781.22.22.476.389.77.506.293.117.612.176.957.176zM193.393 45v-7.7h3.586c.894 0 1.591.172 2.09.517.498.345.748.836.748 1.474 0 .63-.235 1.122-.704 1.474-.47.345-1.093.517-1.87.517l.209-.462c.865 0 1.536.172 2.013.517.476.345.715.843.715 1.496 0 .675-.257 1.206-.77 1.595-.506.381-1.247.572-2.222.572h-3.795zm1.771-1.32h1.958c.41 0 .722-.08.935-.242.212-.161.319-.41.319-.748 0-.323-.107-.561-.319-.715-.213-.161-.525-.242-.935-.242h-1.958v1.947zm0-3.19h1.661c.388 0 .682-.077.88-.231.198-.161.297-.396.297-.704 0-.308-.099-.539-.297-.693-.198-.161-.492-.242-.88-.242h-1.661v1.87zM9.374 11.28H21.23v6.46H9.374v-6.46zm.608 9.956h13.3V28H1.166V1.4h21.622v6.764H9.982v13.072zM24.986 28L36.614 1.4h8.816L57.058 28h-9.272L39.198 5.656h3.496L34.106 28h-9.12zm6.916-4.636l2.28-6.46h12.236l2.28 6.46H31.902zm37.646 5.244c-2.23 0-4.383-.253-6.46-.76-2.078-.507-3.788-1.165-5.13-1.976l2.888-6.536c1.266.735 2.672 1.33 4.218 1.786 1.57.43 3.09.646 4.56.646.861 0 1.532-.05 2.014-.152.506-.127.874-.291 1.102-.494.228-.228.342-.494.342-.798 0-.481-.266-.861-.798-1.14-.532-.279-1.242-.507-2.128-.684a76.335 76.335 0 00-2.85-.608 30.98 30.98 0 01-3.154-.874 12.718 12.718 0 01-2.888-1.406 6.7 6.7 0 01-2.09-2.28c-.532-.963-.798-2.153-.798-3.572 0-1.647.456-3.141 1.368-4.484.937-1.368 2.318-2.457 4.142-3.268 1.849-.81 4.142-1.216 6.878-1.216 1.798 0 3.572.19 5.32.57 1.748.38 3.318.963 4.712 1.748l-2.698 6.498C76.78 8.949 75.5 8.455 74.26 8.126a13.63 13.63 0 00-3.572-.494c-.862 0-1.546.076-2.052.228-.507.152-.874.355-1.102.608a1.308 1.308 0 00-.304.836c0 .456.266.823.798 1.102.532.253 1.228.469 2.09.646.886.177 1.849.367 2.888.57 1.064.203 2.115.481 3.154.836 1.038.355 1.988.823 2.85 1.406a6.562 6.562 0 012.128 2.28c.532.937.798 2.103.798 3.496 0 1.621-.469 3.116-1.406 4.484-.912 1.343-2.28 2.432-4.104 3.268-1.824.81-4.117 1.216-6.878 1.216zM92.028 28V16.334l2.052 5.358L81.996 1.4h9.462l8.17 13.87h-5.51l8.246-13.87h8.664L99.02 21.692l1.976-5.358V28h-8.968zm29.22 0l-8.892-26.6h3.914l8.17 24.548h-1.976L130.938 1.4h3.496l8.284 24.548h-1.9L149.102 1.4h3.61L143.82 28h-3.99l-7.752-22.762h1.026L125.314 28h-4.066zm31.041 0l12.046-26.6h3.762L180.181 28h-3.99L165.437 3.528h1.52L156.203 28h-3.914zm5.13-6.65l1.026-3.04h14.972l1.102 3.04h-17.1zM188.785 28V17.816l.874 2.356L178.221 1.4h4.066l9.614 15.846h-2.204L199.349 1.4h3.762l-11.4 18.772.836-2.356V28h-3.762z" fill="#101010"/></svg>
